src/actions/24/flag-green.svg

<svg xmlns="http://www.w3.org/2000/svg" viewBox="0 0 24 24">
  <defs id="defs3051">
    <style type="text/css" id="current-color-scheme">
      .ColorScheme-Text {
        color:#363636;
      }
      </style>
  </defs>
 <path 
    style="fill:currentColor;fill-opacity:1;stroke:none" 
	d="M 4 4 L 4 20 L 5 20 L 5 13 L 5 4 L 4 4 z "
    class="ColorScheme-Text"
    />
  <path
     style="fill:#aac69f"
     d="M 5 4 L 5 13 L 10 12 L 11 11.800781 L 11 13.800781 L 20 12 L 18 11 L 20 10 L 11 7.5996094 L 11 5.5996094 L 10 5.3339844 L 5 4 z "
     />
</svg>

<svg xmlns="http://www.w3.org/2000/svg" viewBox="0 0 24 24">
    <path d="M4 4v16h1V4H4z" style="fill:currentColor;fill-opacity:1;stroke:none;color:#050505;opacity:.7"/>
    <path d="M5 4v9l5-1 1-.2v2l9-1.8-2-1 2-1-9-2.4v-2l-1-.266L5 4z" style="fill:#add49f"/>
</svg>
